X:818
T:Brochan Lom #1
C:Joe Buchanan's Scottish Tome - Page 395.1
I:395 1
S:Schottische
Z:Carl Allison
R:Strathspey
L:1/8
M:4/4
K:A
ed | c<A A2 E<A A2 | (c>A)(e>c) (A2 A)de  | f<d d2 F>B | (G>E)(B>G) (E2 E)ed |
c<A A2 E<A A2 | (c>A)(e>c) (A2 A)de |  (d>B)(c>A) (d>B)(c>A) | (G>E) ((3EFG) A2 A |]
e  | c<e e2 c<e e2  | (c>A)(e>c) (A2 A)de | d<f f2 d<f d2 | (d>B)(f>d) (B2 B)cd |
c<e e2 c<e e2  | (c>A)(e>c) (A2 A)de | (d>B)(c>A) (d>B)(c>A) | (G>E) ((3EFG) A2 A |]
[K:D]d>dd>d d>dd>d  | d>dd>d e2 d2 | d>dd>d e2 d2 | e2 d<d B2 A2 |
G2 G2 E>DD>E  | G2 G>G B2 A2  | G2 G2 E>DD>E |  B>dd>c B>A G2 |]
B>dd>d d>dd>d  | B>dd>d e>f g2  | B>dd>d d>dd>d  | d>ed>c B2 A>B  |
G2 G2 E>DD>E | G2 G>G B2 A2  | G2 G2 E>DD>E  | B>dd>c B>A G2 |]
